X:1
T:Revive Us Again
T:Text: William P. Mackay (1839-1885) Tune: John J. Husband (1760-1825)
T:11 11 Refrain [REVIVE US AGAIN] www.hymnary.org/text/we_praise_thee_o_god_for_the_son_of
T:Revive Us Again
T:This hymn is in the public domain.  You may freely use this score for personal and congregational worship.  If you reproduce the score, please credit Hymnary.org as the source. 
T:This hymn is in the public domain.  You may freely use this score for personal and congregational worship.  If you reproduce the score, please credit Hymnary.org as the source. 
Z:This hymn is in the public domain.  You may freely use this score for personal and congregational worship.  If you reproduce the score, please credit Hymnary.org as the source.
%%score ( 1 2 ) ( 3 4 )
L:1/8
M:3/4
K:F
V:1 treble nm="Piano" snm="Pno."
V:2 treble 
V:3 bass nm="Piano" snm="Pno."
V:4 bass 
V:1
 C2 | [CF]2 [CF]2 [CF]2 | [CF]4 [CF][CG] | [CA]2 [CA]2 [CA]2 | [CA]4 ([C-F][CA]) | %5
w: 3~All|glo- ry and|praise to the|Lamb that was|slain, who has|
w: 1~We|praise thee, O|God, for the|Son of thy|love, for _|
w: 2~We|praise thee, O|God, for thy|Spi- rit of|light, who has|
 [Fc]2 [Fc]2 [Fc]2 | [Fd]2 [Fc]2 [CA]2 | [FA]2 [EG]2 [EG]2 | [EG]4 ||"^Refrain" [Fc]>[Fc] | %10
w: borne all our|sins, and has|cleansed ev- ery|stain.|Hal- le-|
w: Je- sus who|died, and is|now gone a-|bove.||
w: shown us our|Sa- vior, and|scat- tered our|night.||
 [Fd]2 [Fc]2 [FA]>[CG] | [CF]2 [CF]2 [Fc][Fc] | [Fd]2 [Fc]2 [FA]2 | [EG]4 [Fc]>[Fc] | %14
w: lu- jah! thine the|glo- ry; Hal- le-|lu- jah, A-|men! Hal- le-|
w: ||||
w: ||||
 [Fd]2 [Fc]2 [FA]>[CG] | [CF]2 [CF]2 [CA]2 | [DB]2 [CA]2 [CG]2 | [CF]4 |] %18
w: lu- jah! thine the|glo- ry; re-|vive us a-|gain.|
w: ||||
w: ||||
V:2
 C2 | x6 | x6 | x6 | x6 | x6 | x6 | x6 | x4 || x2 | x6 | x6 | x6 | x6 | x6 | x6 | x6 | x4 |] %18
V:3
 [F,A,]2 | [F,A,]2 [C,A,]2 [A,,A,]2 | [F,,A,]4 [A,C][G,B,] | [F,A,]2 [C,F,]2 [A,,F,]2 | %4
 [F,,F,]4 [F,A,]-[F,A,] | [F,A,]2 [F,A,]2 [F,A,]2 | [F,B,]2 [F,A,]2 F,2 | [C,C]2 [C,C]2 [C,C]2 | %8
 [C,C]4 || [F,A,]>[F,A,] | [B,,B,]2 [F,A,]2 [F,C]>[F,B,] | [F,A,]2 [F,A,]2 [F,A,][F,A,] | %12
 [B,,B,]2 [F,A,]2 [F,C]2 | [C,C]4 [F,A,]>[F,A,] | [B,,B,]2 [F,A,]2 [F,C]>[F,B,] | %15
 [F,A,]2 [F,A,]2 F,2 | [B,,F,]2 [C,F,]2 [C,B,]2 | [F,A,]4 |] %18
V:4
 x2 | x6 | x6 | x6 | x6 | x6 | x4 F,2 | x6 | x4 || x2 | x6 | x6 | x6 | x6 | x6 | x4 F,2 | x6 | %17
 x4 |] %18

